X:33
T: WO MAG DENN WOHL MEIN CHRISTIAN SIN
N: E1028
O: Europa, Mitteleuropa, Deutschland, Brandenburg
R: Tanz - Lied, Kirmes
M: 2/4
L: 1/16
K: G
B2 | d2B2B2B2 | d2B2B2
B2 | c2A2A2A2 | c4B2
B2 | d2B2B2B2 | d2B2B2
B2 | A2B2c2A2 | A4G2z2 |
A2ABA2AB | A2ABA2
A2 | A2B2A2G2 | F2E2D2
B2 | d2B2B2B2 | d2B2B2
B2 | A2B2c2F2 | G4z4 |
A3BA3B | A3BA4 |
A2B2A2G2 | F2E2D4 |
d4B4 | d4B4 |
A2B2c2F2 | G4z2

@@@ Tune index: 4717
